icons/circle/48/wunderlist.svg

<svg xmlns="http://www.w3.org/2000/svg" xmlns:xlink="http://www.w3.org/1999/xlink" viewBox="0 0 48 48">
 <defs>
  <linearGradient id="linear0" gradientUnits="userSpaceOnUse" y1="1009.36" x2="0" y2="1039.36" gradientTransform="matrix(1,0,0,1,-0.0000000472441,-1006.3622)">
   <stop style="stop-color:#f45b45;stop-opacity:1"/>
   <stop offset="0.5" style="stop-color:#db3d28;stop-opacity:1"/>
   <stop offset="1" style="stop-color:#f45b45;stop-opacity:1"/>
  </linearGradient>
  <linearGradient xlink:href="#linear0" id="linearGradient3064" gradientUnits="userSpaceOnUse" gradientTransform="matrix(0,-1,1,0,-1.5e-6,47.999998)" x1="1" x2="47"/>
  <linearGradient id="linearGradient3834" gradientUnits="userSpaceOnUse" gradientTransform="matrix(0,-1,1,0,-1.5e-6,47.999998)" x1="1" x2="47">
   <stop style="stop-color:#eaeaea;stop-opacity:1"/>
   <stop offset="1" style="stop-color:#f4f4f4;stop-opacity:1"/>
  </linearGradient>
  <linearGradient xlink:href="#linear0" id="linearGradient3578" gradientUnits="userSpaceOnUse" gradientTransform="translate(-4.72441e-8,-1006.3622)" y1="1009.36" x2="0" y2="1039.36"/>
 </defs>
 <g>
  <path d="m 36.31 5 c 5.859 4.062 9.688 10.831 9.688 18.5 c 0 12.426 -10.07 22.5 -22.5 22.5 c -7.669 0 -14.438 -3.828 -18.5 -9.688 c 1.037 1.822 2.306 3.499 3.781 4.969 c 4.085 3.712 9.514 5.969 15.469 5.969 c 12.703 0 23 -10.298 23 -23 c 0 -5.954 -2.256 -11.384 -5.969 -15.469 c -1.469 -1.475 -3.147 -2.744 -4.969 -3.781 z m 4.969 3.781 c 3.854 4.113 6.219 9.637 6.219 15.719 c 0 12.703 -10.297 23 -23 23 c -6.081 0 -11.606 -2.364 -15.719 -6.219 c 4.16 4.144 9.883 6.719 16.219 6.719 c 12.703 0 23 -10.298 23 -23 c 0 -6.335 -2.575 -12.06 -6.719 -16.219 z" style="opacity:0.05"/>
  <path d="m 41.28 8.781 c 3.712 4.085 5.969 9.514 5.969 15.469 c 0 12.703 -10.297 23 -23 23 c -5.954 0 -11.384 -2.256 -15.469 -5.969 c 4.113 3.854 9.637 6.219 15.719 6.219 c 12.703 0 23 -10.298 23 -23 c 0 -6.081 -2.364 -11.606 -6.219 -15.719 z" style="opacity:0.1"/>
  <path d="m 31.25 2.375 c 8.615 3.154 14.75 11.417 14.75 21.13 c 0 12.426 -10.07 22.5 -22.5 22.5 c -9.708 0 -17.971 -6.135 -21.12 -14.75 a 23 23 0 0 0 44.875 -7 a 23 23 0 0 0 -16 -21.875 z" style="opacity:0.2"/>
 </g>
 <path d="M 24,1 C 36.703,1 47,11.297 47,24 47,36.703 36.703,47 24,47 11.297,47 1,36.703 1,24 1,11.297 11.297,1 24,1 z" style="fill:url(#linearGradient3064);fill-opacity:1"/>
 <g transform="matrix(0.82608696,0,0,0.82608696,4.1739131,4.1739131)">
  <path d="M 24,1 C 36.703,1 47,11.297 47,24 47,36.703 36.703,47 24,47 11.297,47 1,36.703 1,24 1,11.297 11.297,1 24,1 z" style="fill:url(#linearGradient3834);fill-opacity:1"/>
 </g>
 <g>
  <g>
   <g transform="translate(1,1)">
    <g style="opacity:0.1">
     <!-- color: #f4f4f4 -->
     <g>
      <path d="m 17 4 0 30 8 -7.813 8 7.813 0.006 0 l -0.006 -27 m -8 5 2 4 5 0 -4 4 1.998 4.994 l -4.998 -3.494 -4.98 3.486 1.98 -4.986 l -4 -4 5 0 z" transform="translate(-1,-1)"/>
     </g>
    </g>
   </g>
  </g>
 </g>
 <g>
  <g>
   <!-- color: #f4f4f4 -->
   <g>
    <path d="m 16 4 0 29 8 -7.813 7.939 7.813 0.006 0 0.055 0 0.006 -12 l -0.006 0 0 -17 m -8 7 2 4 5 0 -4 4 1.998 4.994 l -4.998 -3.494 -4.98 3.486 1.98 -4.986 l -4 -4 5 0 z" style="fill:url(#linearGradient3578)"/>
   </g>
  </g>
 </g>
 <g>
  <path d="m 40.03 7.531 c 3.712 4.084 5.969 9.514 5.969 15.469 0 12.703 -10.297 23 -23 23 c -5.954 0 -11.384 -2.256 -15.469 -5.969 4.178 4.291 10.01 6.969 16.469 6.969 c 12.703 0 23 -10.298 23 -23 0 -6.462 -2.677 -12.291 -6.969 -16.469 z" style="opacity:0.1"/>
 </g>
</svg>

<svg xmlns="http://www.w3.org/2000/svg" xmlns:xlink="http://www.w3.org/1999/xlink" viewBox="0 0 48 48">
  <defs>
    <linearGradient id="a" gradientUnits="userSpaceOnUse" y1="1009.36" x2="0" y2="1039.36" gradientTransform="translate(0 -1006.362)">
      <stop stop-color="#f45b45"/>
      <stop offset=".5" stop-color="#db3d28"/>
      <stop offset="1" stop-color="#f45b45"/>
    </linearGradient>
    <linearGradient xlink:href="#a" id="b" gradientUnits="userSpaceOnUse" gradientTransform="rotate(-90 24 24)" x1="1" x2="47"/>
    <linearGradient id="c" gradientUnits="userSpaceOnUse" gradientTransform="rotate(-90 24 24)" x1="1" x2="47">
      <stop stop-color="#eaeaea"/>
      <stop offset="1" stop-color="#f4f4f4"/>
    </linearGradient>
    <linearGradient xlink:href="#a" id="d" gradientUnits="userSpaceOnUse" gradientTransform="translate(0 -1006.362)" y1="1009.36" x2="0" y2="1039.36"/>
  </defs>
  <path d="M36.31 5c5.859 4.062 9.688 10.831 9.688 18.5 0 12.426-10.07 22.5-22.5 22.5-7.669 0-14.438-3.828-18.5-9.688a23.24 23.24 0 0 0 3.781 4.969 22.923 22.923 0 0 0 15.469 5.969c12.703 0 23-10.298 23-23a22.92 22.92 0 0 0-5.969-15.469A23.216 23.216 0 0 0 36.31 5zm4.969 3.781A22.911 22.911 0 0 1 47.498 24.5c0 12.703-10.297 23-23 23a22.909 22.909 0 0 1-15.719-6.219C12.939 45.425 18.662 48 24.998 48c12.703 0 23-10.298 23-23 0-6.335-2.575-12.06-6.719-16.219z" opacity=".05"/>
  <path d="M41.28 8.781a22.923 22.923 0 0 1 5.969 15.469c0 12.703-10.297 23-23 23A22.92 22.92 0 0 1 8.78 41.281 22.911 22.911 0 0 0 24.499 47.5c12.703 0 23-10.298 23-23A22.909 22.909 0 0 0 41.28 8.781z" opacity=".1"/>
  <path d="M31.25 2.375C39.865 5.529 46 13.792 46 23.505c0 12.426-10.07 22.5-22.5 22.5-9.708 0-17.971-6.135-21.12-14.75a23 23 0 0 0 44.875-7 23 23 0 0 0-16-21.875z" opacity=".2"/>
  <path d="M24 1c12.703 0 23 10.297 23 23S36.703 47 24 47 1 36.703 1 24 11.297 1 24 1z" fill="url(#b)"/>
  <path d="M24 1c12.703 0 23 10.297 23 23S36.703 47 24 47 1 36.703 1 24 11.297 1 24 1z" fill="url(#c)" transform="matrix(.82609 0 0 .82609 4.174 4.174)"/>
  <path d="M17 4v30l8-7.813L33 34h.006L33 7m-8 5l2 4h5l-4 4 1.998 4.994L25 21.5l-4.98 3.486L22 20l-4-4h5z" opacity=".1"/>
  <g>
    <path d="M16 4v29l8-7.813L31.939 33H32l.006-12H32V4m-8 7l2 4h5l-4 4 1.998 4.994L24 20.5l-4.98 3.486L21 19l-4-4h5z" fill="url(#d)"/>
  </g>
  <g>
    <path d="M40.03 7.531A22.922 22.922 0 0 1 45.999 23c0 12.703-10.297 23-23 23A22.92 22.92 0 0 1 7.53 40.031C11.708 44.322 17.54 47 23.999 47c12.703 0 23-10.298 23-23 0-6.462-2.677-12.291-6.969-16.469z" opacity=".1"/>
  </g>
</svg>
